X:63
T:Denman Duncan's Drumbeat
S:American Veteran Fifer, #63
C:By A.F. Hopkins, Director Burkholder Post Drum Corps.
M:2/4
L:1/16
Q:1/8=180
K:D 
%%MIDI program 72
%%MIDI transpose 8
%%MIDI ratio 3 1
|: AG | EA2B ABcd | ee2f edcd | ea2a abag |  ea2b a2ge |
dA2B ABcd |  ee2f edcd | ea2b agdB | AcBG A2 :|
|: cd | ea2a a4 | gfga gedB | Gg2g g4 | edef gedB |
ea2b a4 | gfga gedB | gfaf gedB | AcBG A2 :|



